icon.svg

<svg width="28" height="28" xmlns="http://www.w3.org/2000/svg">
 <g>
   <path d="m8.735294,20.768907c0,0.413655 -0.338445,0.752101 -0.752101,0.752101s-0.752101,-0.338445 -0.752101,-0.752101l0,-9.025209c0,-0.413655 0.338445,-0.752101 0.752101,-0.752101s0.752101,0.338445 0.752101,0.752101l0,9.025209zm3.008403,0c0,0.413655 -0.338445,0.752101 -0.752101,0.752101s-0.752101,-0.338445 -0.752101,-0.752101l0,-9.025209c0,-0.413655 0.338445,-0.752101 0.752101,-0.752101s0.752101,0.338445 0.752101,0.752101l0,9.025209zm3.008403,0c0,0.413655 -0.338445,0.752101 -0.752101,0.752101s-0.752101,-0.338445 -0.752101,-0.752101l0,-9.025209c0,-0.413655 0.338445,-0.752101 0.752101,-0.752101s0.752101,0.338445 0.752101,0.752101l0,9.025209zm6.768907,-15.794116l-0.752101,0l0,-1.504202c0,-1.660638 -1.347765,-3.008403 -3.008403,-3.008403l-13.537814,0c-1.660638,0 -3.008403,1.347765 -3.008403,3.008403l0,19.55462c0,2.490958 2.021647,4.512605 4.512605,4.512605l10.529411,0c2.490958,0 4.512605,-2.021647 4.512605,-4.512605l0.752101,0c2.903109,0 5.264705,-2.361596 5.264705,-5.264705l0,-7.521008c0,-2.903109 -2.361596,-5.264705 -5.264705,-5.264705zm-17.298318,-1.504202l13.537814,0l0,1.504202l-6.684672,0l-0.177496,0.499395c-0.246689,0.688924 -0.997286,1.098067 -1.680193,0.974723l-0.523462,-0.087244l-0.260227,0.46179c-0.401622,0.714496 -1.150714,1.159739 -1.955462,1.159739c-1.243975,0 -2.256302,-1.012328 -2.256302,-2.256302l0,-2.256302zm13.537814,19.55462c0,0.830319 -0.673882,1.504202 -1.504202,1.504202l-10.529411,0c-0.830319,0 -1.504202,-0.673882 -1.504202,-1.504202l0,-14.304957c0.63026,0.476832 1.407933,0.767143 2.256302,0.767143c1.179294,0 2.287891,-0.56558 2.991857,-1.504202c1.095059,0 2.080311,-0.588143 2.611294,-1.504202l5.678361,0l0,16.546217zm6.016806,-5.264705c0,1.243975 -1.012328,2.256302 -2.256302,2.256302l-2.256302,0l0,-12.033612l2.256302,0c1.243975,0 2.256302,1.012328 2.256302,2.256302l0,7.521008z"/>
 </g>
</svg>

<svg width="28" height="28" xmlns="http://www.w3.org/2000/svg">
 <g>
   <path d=" M 8.735 20.769 C 8.735 21.183 8.397 21.521 7.983 21.521 C 7.57 21.521 7.231 21.183 7.231 20.769 L 7.231 12 C 7.231 11.586 7.57 11.3 7.983 11.3 C 8.397 11.3 8.735 11.586 8.735 12 L 8.735 20.769 Z  M 11.744 20.769 C 11.744 21.183 11.405 21.521 10.992 21.521 C 10.578 21.521 10.239 21.183 10.239 20.769 L 10.239 12 C 10.239 11.586 10.578 11.3 10.992 11.3 C 11.405 11.3 11.744 11.586 11.744 12 L 11.744 20.769 Z  M 14.752 20.769 C 14.752 21.183 14.414 21.521 14 21.521 C 13.586 21.521 13.248 21.183 13.248 20.769 L 13.248 12 C 13.248 11.586 13.586 11.3 14 11.3 C 14.414 11.3 14.752 11.586 14.752 12 L 14.752 20.769 Z  M 21.521 4.975 L 20.769 4.975 L 20.769 3.471 C 20.769 1.81 19.421 0.462 17.761 0.462 L 4.223 0.462 C 2.562 0.462 1.214 1.81 1.214 3.471 L 1.214 23.025 C 1.214 25.516 3.236 27.538 5.727 27.538 L 16.256 27.538 C 18.747 27.538 20.769 25.516 20.769 23.025 L 21.521 23.025 C 24.424 23.025 26.786 20.664 26.786 17.761 L 26.786 10.239 C 26.786 7.336 24.424 4.975 21.521 4.975 L 21.521 4.975 Z  M 4.223 3.471 L 17.761 3.471 L 17.761 5.5 L 11.076 5.5 L 10.898 6 C 10.652 6.689 9.901 7.023 9.218 6.9 L 8.735 6.9 L 8.434 7.3 C 8.033 8.014 7.284 8.5 6.479 8.5 C 5.235 8.5 4.223 7.444 4.223 6.2 L 4.223 3.471 L 4.223 3.471 Z  M 17.761 23.025 C 17.761 23.856 17.087 24.529 16.256 24.529 L 5.727 24.529 C 4.897 24.529 4.223 23.856 4.223 23.025 L 4.223 9.2 C 4.853 9.677 5.631 10 6.479 10 C 7.658 10 8.767 9.439 9.471 8.5 C 10.566 8.5 11.551 7.916 12.082 7 L 17.761 7 L 17.761 23.025 L 17.761 23.025 Z  M 23.777 17.761 C 23.777 19.004 22.765 20.017 21.521 20.017 L 19.265 20.017 L 19.265 7.983 L 21.521 7.983 C 22.765 7.983 23.777 8.996 23.777 10.239 L 23.777 17.761 L 23.777 17.761 Z "/>
 </g>
</svg>
